svg/credit_card_fast.svg

<svg xmlns="http://www.w3.org/2000/svg" viewBox="0 0 24 24"><path d="M3 8c-.55 0-1-.45-1-1s.45-1 1-1h2.54C5.19 6.6 5 7.29 5 8zm2 5H2c-.55 0-1-.45-1-1s.45-1 1-1h3zm-4 5c-.552 0-1-.45-1-1s.448-1 1-1h4c0 .71.19 1.4.54 2zM21 6H9c-1.11 0-2 .89-2 2v8c0 1.11.89 2 2 2h12c1.11 0 2-.89 2-2V8c0-1.11-.89-2-2-2m0 6H9V9h12z"/></svg>

<svg xmlns="http://www.w3.org/2000/svg" id="mdi-credit-card-fast" viewBox="0 0 24 24"><path d="M3 8C2.45 8 2 7.55 2 7S2.45 6 3 6H5.54C5.19 6.6 5 7.29 5 8H3M5 13H2C1.45 13 1 12.55 1 12S1.45 11 2 11H5V13M1 18C.448 18 0 17.55 0 17S.448 16 1 16H5C5 16.71 5.19 17.4 5.54 18H1M21 6H9C7.89 6 7 6.89 7 8V16C7 17.11 7.89 18 9 18H21C22.11 18 23 17.11 23 16V8C23 6.89 22.11 6 21 6M21 12H9V9H21V12Z" /></svg>
